X: 23
T: Billy Wilson [1]
B: canberra pickers and fiddlers
B: tunes
M:4/4
L:1/8
Q: 1/4=100
K:A
V:1 
(3efg|"A"a2 g2 afea|"D"fedf "A"ecBA|"E"B2 G2 B2 G2|"A"ABcd efge|
"A"a2 g2 afea|"D"fedf "A"ecBc|"A"ABcd efed|"E"cABc "A"A2:|
|:cB|"A"ABcd efed|"A"cABc "E"B2 cB|"A"ABcd efed|"E"cA "A"B2 A2:|
|:EF|"A"A2 AA AcBA|"D"F2 FF F2 EF|"A"A2 AA ABcd|e2 ef e2 c2|
"E"B2 BB BcBA|"D"F2 FF F2 EF|"A"A2 ae faed|"E"cABc "A"A2:||
% abcbook-tune_id 63ae8f1cf0867703bb6d7fe0
% abcbook-tune_composer_id 
% abcbook-link-0 https://www.youtube.com/watch?v=eLjzmF-8y_g
% abcbook-link-start-at-0 34
% abcbook-link-end-at-0 122
% abcbook-boost 18
% abcbook-difficulty 0
% abcbook-tags canberra pickers and fiddlers,old time tunes,steve ryan,© free
% abcbook-tablature 
% abcbook-transpose 
% abcbook-tuning AEAE
% abcbook-lastupdated 1677370444856
% abcbook-src-url https://tunebook.net/scrape/tunes.abc
% abcbook-soundfonts 
% abcbook-repeats 1


